X:1
T:There’ll Be Joy By and By
T:There’ll Be Joy By and By
T:Robert Lowry
T:Mrs. E. C. Ellsworth, 1877
T:Public Domain Courtesy of the Cyber Hymnal™
C:Robert Lowry
Z:Public Domain
Z:Courtesy of the Cyber Hymnal™
%%score ( 1 2 ) ( 3 4 )
L:1/8
Q:1/4=90
M:3/4
K:F
V:1 treble 
V:2 treble 
V:3 bass 
V:4 bass 
V:1
 [Fc]>[Fc] [Fc]3 [Fc] | [Fd]>[Fc] [Fc]2 [FA]2 | [FA]>[FA] [FA]3 [FA] | [FB]>[FA] [FA]2 [EG]2 | %4
w: 1.~Tho’ the night be|dark and drear- y,|Tho’ the way be|long and wear- y,|
w: 2.~Tho’ thine eyes are|sad with weep- ing,|Thro’ the night thy|vi- gils keep- ing,|
w: 3.~Tho’ thy spir- it|faints with fast- ing|Thro’ the hours so|slow- ly wast- ing,|
 [EG]>[FA] [GB]3 [Ac] | [Bd]>[Ac] [FA]4 | [CF]>[CG] [FA]3 [FB] | [FA]>[EG] F4 || %8
w: Morn shall bring thee|light and cheer;|Child, look up, the|dawn is near.|
w: God shall wipe thy|tears a- way,|Turn thy dark- ness|in- to day.|
w: Morn shall bring a|glor- ious feast,|Thou shalt sit an|hon- ored guest.|
"^Refrain" [Fc]>[Fc] [Fc]4 | (3(AG)F [Ec]4 | [GB]>[GB] [GB]4 | (3([EG][FA])[GB] [Ac]4 x3/4 | %12
w: ||||
w: There’ll be joy|by * and by,|There’ll be joy|by * and by;|
w: ||||
 [Fc]>[Fd] [Fd] [Fc]3 | [FA]>[FB] [FB] [FA]3 | (3(A[EG])F [Ec]4 |"^riten." [EG]>[EA] F4 |] %16
w: ||||
w: In the dawn- ing|of the morn- ing,|There’ll * be joy|by and by.|
w: ||||
V:2
 x6 | x6 | x6 | x6 | x6 | x6 | x6 | x2 F4 || x6 | F2 F x3 | x6 | x27/4 | x6 | x6 | F2 F x3 | %15
 x2 F4 |] %16
V:3
 [F,A,]>[F,A,] [F,A,]3 [F,A,] | [F,B,]>[F,A,] [F,A,]2 [F,C]2 | [F,C]>[F,C] [F,C]3 [F,C] | %3
 [F,D]>[F,C] [C,C]2 [C,C]2 | [C,C]>[C,C] [C,C]3 [C,C] | [C,C]>[C,C] [F,C]4 | %6
 [F,A,]>[F,B,] [F,C]3 [B,,D] | [C,C]>[C,B,] [F,A,]4 || [F,A,]>[F,A,] [F,A,]4 | %9
 (3(CB,)[F,A,] [C,G,]4 | [C,C]>[C,C] [C,C]4 | C2 (3:2:1[G,C] [F,C]4 x/12 | %12
 [F,A,]>[F,B,] [F,B,] [F,A,]3 | [F,C]>[F,D] [F,D] [F,C]3 | (3(CB,)[F,A,] [C,G,]4 | %15
 [C,B,]>[C,C] [F,A,]4 |] %16
V:4
 x6 | x6 | x6 | x6 | x6 | x6 | x6 | x6 || x6 | F,2 x4 | x6 | (3:2:2(B,A,) x65/12 | x6 | x6 | %14
 F,2 x4 | x6 |] %16

